kyobo/mok/images/guide/ico_evt_quick_01.svg

<svg xmlns="http://www.w3.org/2000/svg" width="32" height="32" viewBox="0 0 32 32">
    <defs>
        <clipPath id="clip-path">
            <path id="사각형_19768" data-name="사각형 19768" class="cls-1" d="M0 0h23.88v24H0z"/>
        </clipPath>
        <style>
            .cls-1{fill:#fff}
        </style>
    </defs>
    <g id="그룹_109526" data-name="그룹 109526" transform="translate(19790 19535)">
        <path id="사각형_19769" data-name="사각형 19769" transform="translate(-19790 -19535)" style="fill:none" d="M0 0h32v32H0z"/>
        <g id="그룹_109527" data-name="그룹 109527" transform="translate(-19785.939 -19531)">
            <g id="그룹_109526-2" data-name="그룹 109526" style="clip-path:url(#clip-path)">
                <path id="패스_36991" data-name="패스 36991" class="cls-1" d="M19.816 24.016H4.066A4.07 4.07 0 0 1 0 19.951V4.161A4.07 4.07 0 0 1 4.066.1h15.75a4.068 4.068 0 0 1 4.064 4.061v15.79a4.069 4.069 0 0 1-4.063 4.065M4.066 1.79a2.375 2.375 0 0 0-2.373 2.371v15.79a2.376 2.376 0 0 0 2.373 2.372h15.75a2.374 2.374 0 0 0 2.371-2.372V4.161a2.373 2.373 0 0 0-2.371-2.371z" transform="translate(0 -.015)"/>
                <path id="패스_36992" data-name="패스 36992" class="cls-1" d="m21.851 11.879-3.894-3.052-3.787 2.88V0h7.681zM17.974 6.69l2.184 1.71V1.693h-4.3v6.6z" transform="translate(-2.177)"/>
                <path id="사각형_19767" data-name="사각형 19767" class="cls-1" transform="translate(4.23 .967)" d="M0 0h1.693v22.187H0z"/>
            </g>
        </g>
    </g>
</svg>

<svg xmlns="http://www.w3.org/2000/svg" xmlns:xlink="http://www.w3.org/1999/xlink" width="32" height="32" viewBox="0 0 32 32">
  <defs>
    <style>
      .cls-1 {
        fill: none;
      }

      .cls-2 {
        clip-path: url(#clip-path);
      }
    </style>
    <clipPath id="clip-path">
      <rect id="사각형_19768" data-name="사각형 19768" width="23.88" height="24"/>
    </clipPath>
  </defs>
  <g id="그룹_109526" data-name="그룹 109526" transform="translate(19790 19535)">
    <rect id="사각형_19769" data-name="사각형 19769" class="cls-1" width="32" height="32" transform="translate(-19790 -19535)"/>
    <g id="그룹_109527" data-name="그룹 109527" transform="translate(-19785.939 -19531)">
      <g id="그룹_109526-2" data-name="그룹 109526" class="cls-2" transform="translate(0 0)">
        <path id="패스_36991" data-name="패스 36991" d="M19.816,24.016H4.066A4.07,4.07,0,0,1,0,19.951V4.161A4.07,4.07,0,0,1,4.066.1H19.816A4.068,4.068,0,0,1,23.88,4.161v15.79a4.069,4.069,0,0,1-4.063,4.065M4.066,1.79A2.375,2.375,0,0,0,1.693,4.161v15.79a2.376,2.376,0,0,0,2.373,2.372H19.816a2.374,2.374,0,0,0,2.371-2.372V4.161A2.373,2.373,0,0,0,19.816,1.79Z" transform="translate(0 -0.015)"/>
        <path id="패스_36992" data-name="패스 36992" d="M21.851,11.879,17.957,8.827,14.17,11.707V0h7.681ZM17.974,6.69,20.158,8.4V1.693h-4.3v6.6Z" transform="translate(-2.177 0)"/>
        <rect id="사각형_19767" data-name="사각형 19767" width="1.693" height="22.187" transform="translate(4.23 0.967)"/>
      </g>
    </g>
  </g>
</svg>
